libs/ui/packages/crypto-icons/src/svg/PUNK.svg

<svg width="24" height="24" viewBox="0 0 24 24" fill="none" xmlns="http://www.w3.org/2000/svg">
<path fill-rule="evenodd" clip-rule="evenodd" d="M12.1369 4.0835C7.74469 4.0835 4.18408 7.6441 4.18408 12.0363C4.18408 16.4286 7.74469 19.9892 12.1369 19.9892C16.5292 19.9892 20.0898 16.4286 20.0898 12.0363C20.0898 7.6441 16.5292 4.0835 12.1369 4.0835ZM3.18408 12.0363C3.18408 7.09182 7.1924 3.0835 12.1369 3.0835C17.0815 3.0835 21.0898 7.09182 21.0898 12.0363C21.0898 16.9809 17.0815 20.9892 12.1369 20.9892C7.1924 20.9892 3.18408 16.9809 3.18408 12.0363Z" fill="white"/>
<path d="M10.248 7.26758H8.14454V9.8099H6.82764V11.0353H8.14454V12.3517H6.82768V13.5771H8.14454V16.0469H9.42487V17.2907H15.1131V16.0469H16.3935V7.26758H14.2901V14.8946H10.248V13.5771H11.4917V12.3517H10.248V11.0353H11.4917V9.8099H10.248V7.26758Z" fill="white"/>
</svg>

<svg xmlns="http://www.w3.org/2000/svg" width="24" height="24" viewBox="0 0 24 24" fill="none"><path fill="#fff" fill-rule="evenodd" d="M12.137 4.084a7.953 7.953 0 1 0 0 15.905 7.953 7.953 0 0 0 0-15.905m-8.953 7.952a8.953 8.953 0 1 1 17.906 0 8.953 8.953 0 0 1-17.906 0" clip-rule="evenodd"/><path fill="#fff" d="M10.248 7.268H8.145V9.81H6.828v1.225h1.317v1.317H6.828v1.225h1.317v2.47h1.28v1.244h5.688v-1.244h1.28v-8.78H14.29v7.628h-4.042v-1.318h1.244v-1.225h-1.244v-1.317h1.244V9.81h-1.244z"/></svg>
